file-restore.svg

<svg fill="currentColor" viewBox="0 0 24 24"><path d="M14 2H6a2 2 0 0 0-2 2v16a2 2 0 0 0 2 2h12a2 2 0 0 0 2-2V8zm-2 16c-2.05 0-3.81-1.24-4.58-3h1.71c.63.9 1.68 1.5 2.87 1.5a3.5 3.5 0 0 0 3.5-3.5A3.5 3.5 0 0 0 12 9.5c-1.35 0-2.5.78-3.1 1.9l1.6 1.6h-4V9l1.3 1.3C8.69 8.92 10.23 8 12 8a5 5 0 0 1 5 5 5 5 0 0 1-5 5"/></svg>

<svg  viewBox="0 0 24 24" fill="currentColor"><path  d="M14,2H6A2,2 0 0,0 4,4V20A2,2 0 0,0 6,22H18A2,2 0 0,0 20,20V8L14,2M12,18C9.95,18 8.19,16.76 7.42,15H9.13C9.76,15.9 10.81,16.5 12,16.5A3.5,3.5 0 0,0 15.5,13A3.5,3.5 0 0,0 12,9.5C10.65,9.5 9.5,10.28 8.9,11.4L10.5,13H6.5V9L7.8,10.3C8.69,8.92 10.23,8 12,8A5,5 0 0,1 17,13A5,5 0 0,1 12,18Z"/></svg>
